assets/Dragon face/Flat/dragon_face_flat.svg

<svg width="32" height="32" viewBox="0 0 32 32" fill="none" xmlns="http://www.w3.org/2000/svg">
<path d="M9.86911 18.7891L9.82812 18.75H13.2344L12.1306 20.02C11.8606 20.29 11.4306 20.29 11.1606 20.02L10.2561 19.1579L9.41187 20.02C9.14187 20.29 8.71187 20.29 8.44187 20.02L7.54963 19.1104L6.6775 20.02C6.4075 20.29 5.9775 20.29 5.7075 20.02L4.51562 18.8281H7.27269L7.23438 18.7891H9.86911Z" fill="#D3D3D3"/>
<path d="M19.6562 19.0002H19L19.5369 12.0625H29.6719C30.2519 12.0625 30.5469 12.6075 30.5469 13.1875V14.5C30.5469 16.8086 28.7796 18.7047 26.1464 18.9688H29.3263C30.0562 18.9688 30.6562 19.3796 30.6562 20.1096V23.7609C30.6562 27.5159 28.5156 29.9209 26.1875 29.9209H19.6562V19.0002Z" fill="#F70A8D"/>
<path d="M10.551 1.6787C10.037 1.52971 9.49952 1.82562 9.35053 2.33964C9.20153 2.85367 9.49745 3.39115 10.0115 3.54014C10.6835 3.73494 10.9953 3.99416 11.132 4.17663C11.2583 4.34529 11.285 4.5116 11.2547 4.67813C11.1764 5.1085 10.7662 5.42164 10.4687 5.42164C10.0082 5.42164 9.68486 5.27825 9.18245 5.05545C9.01245 4.98007 8.82195 4.89559 8.5987 4.8045C7.74073 4.45443 6.70166 4.20545 5.30246 4.75415C3.38697 5.50532 3.04515 7.3959 3.15012 8.85442C3.2569 10.3381 3.82769 11.8428 4.30201 12.6056C4.58463 13.06 5.18216 13.1994 5.63663 12.9167C6.09111 12.6341 6.23043 12.0366 5.94781 11.5821C5.63586 11.0805 5.16688 9.87831 5.08318 8.7153C4.99767 7.52712 5.31465 6.83113 6.01002 6.55843C6.79884 6.24909 7.29884 6.3673 7.86653 6.59893C7.96476 6.63901 8.07608 6.68952 8.19916 6.74536C8.75587 6.99795 9.55318 7.3597 10.4687 7.3597C11.8252 7.3597 12.9384 6.25096 13.1615 5.02508C13.2819 4.36349 13.1537 3.64307 12.6832 3.01486C12.2231 2.40046 11.4961 1.95264 10.551 1.6787Z" fill="#FCD53F"/>
<path d="M22.8585 5.00004H27.5433C27.7528 5.00004 27.9051 5.23004 27.8194 5.43004L27.5909 6.00004C27.1148 7.21004 25.9912 8.00004 24.7439 8.00004H22.8585C22.5919 8.00004 22.3444 8.17004 22.2301 8.42004L20.8399 11.65C20.7447 11.86 20.5447 12 20.3257 12H18.3738C17.9738 12 17.6977 11.56 17.8596 11.17L19.4497 7.34004C20.0401 5.92004 21.3827 5.00004 22.8585 5.00004Z" fill="#FCD53F"/>
<path d="M13.545 7.74869C13.7109 7.46456 13.8246 7.2698 13.8438 7.23444C13.9453 7.04684 14.4842 6.07835 15.4062 6.07819C16.0743 6.07808 16.6307 6.07814 16.9406 6.07817C17.033 6.07818 17.1035 6.07819 17.1484 6.07819C17.7109 6.07819 18.0234 6.64842 18.0234 6.98436C18.0234 7.37498 17.8047 7.99996 17.1484 7.99996H16.375C16.3125 7.98434 16.1687 7.98746 16.0938 8.12496C16.06 8.18681 15.9428 8.5144 15.8028 8.92064H27.6793C27.9293 8.92064 28.0993 9.15064 28.0493 9.39064L27.7193 11.3506C27.4193 12.5506 26.3393 13.3906 25.1093 13.3906H23.3993L23.4593 13.4606C23.9993 14.0606 24.2993 14.8306 24.2993 15.6406L24.2893 23.0606V23.4206L24.2493 24.4606C24.2393 24.6306 24.2193 24.8106 24.1993 24.9806L24.1393 25.5006C24.1256 25.6243 24.1024 25.7432 24.0795 25.8607C24.0691 25.9142 24.0587 25.9674 24.0493 26.0206L23.9493 26.5306C23.9293 26.644 23.9004 26.7573 23.8715 26.8707C23.8571 26.9273 23.8426 26.984 23.8293 27.0406C23.5693 28.0306 23.2093 29.0006 22.7593 29.9206H14.5155L15.4365 26.7122C15.9941 26.1945 16.0208 25.5264 16.0493 24.8137C16.057 24.6214 16.0648 24.4258 16.0832 24.229C16.0946 24.1079 16.0016 24 15.8799 24H7.13931C5.49931 24 4.06931 22.7706 4.07931 21.5206C4.07931 21.1906 4.34617 21.0337 4.67617 21.0337H10.2278C10.7195 21.0337 11.4005 20.7175 11.7505 20.3675L13.0793 18.9206H3.81931C2.85931 18.9206 2.07931 18.1406 2.07931 17.1806V13.3806C2.09931 12.0206 3.20931 10.9206 4.57931 10.9206C5.17931 10.9206 5.91493 11.0606 6.34493 11.4206C6.373 11.444 6.40147 11.4681 6.43037 11.4925C6.7103 11.7292 7.02923 11.9988 7.39181 11.9988L10.4293 11.8906C10.9293 11.8906 11.3693 11.5906 11.5593 11.1406L11.9993 10.4206C12.0261 10.3744 12.0541 10.3291 12.0831 10.2848C12.5006 9.53792 13.162 8.40493 13.545 7.74869Z" fill="#00D26A"/>
<path d="M14.6163 29.9206C15.3233 29.4798 16.5543 27.5772 17.25 25.8614C17.8125 24.4741 16.849 24.0424 16.2969 24H14.2031L14.1373 24.0416C14.243 24.0583 14.3192 24.1576 14.3038 24.2674C14.1748 25.1883 14.0447 26.0547 13.3367 26.7122C12.4068 27.5889 10.6728 28.1548 9.44604 28.5551C9.35744 28.584 9.27149 28.6121 9.18867 28.6393C9.09414 28.6857 8.99705 28.7294 8.90131 28.7725C8.46028 28.971 8.04805 29.1566 8.04805 29.5299C8.04805 29.8805 8.27448 29.888 8.63617 29.8998C8.74323 29.9034 8.86215 29.9073 8.99056 29.9206H14.6163Z" fill="#FCD53F"/>
<path d="M4 17C3.45361 17 3 16.5905 3 16.0762V13.9238C3 13.419 3.4433 13 4 13C4.54639 13 5 13.4095 5 13.9238V16.0762C4.98969 16.581 4.54639 17 4 17Z" fill="#008463"/>
<path d="M14 14C14 13.4477 14.4477 13 15 13C15.5523 13 16 13.4477 16 14V16C16 16.5523 15.5523 17 15 17C14.4477 17 14 16.5523 14 16V14Z" fill="#1C1C1C"/>
</svg>

<svg xmlns="http://www.w3.org/2000/svg" width="32" height="32" fill="none"><path fill="#D3D3D3" d="m9.87 18.79-.042-.04h3.406l-1.103 1.27c-.27.27-.7.27-.97 0l-.905-.862-.844.862c-.27.27-.7.27-.97 0l-.892-.91-.872.91c-.27.27-.7.27-.97 0l-1.192-1.192h2.757l-.039-.039H9.87Z"/><path fill="#F70A8D" d="M19.656 19H19l.537-6.938h10.135c.58 0 .875.546.875 1.126V14.5c0 2.309-1.767 4.205-4.4 4.469h3.18c.73 0 1.33.41 1.33 1.14v3.652c0 3.755-2.141 6.16-4.47 6.16h-6.53V19Z"/><path fill="#FCD53F" d="M10.551 1.679a.969.969 0 1 0-.54 1.861c.673.195.984.454 1.121.637a.613.613 0 0 1 .123.501c-.079.43-.489.744-.786.744-.46 0-.784-.144-1.287-.367-.17-.075-.36-.16-.583-.25-.858-.35-1.897-.6-3.297-.05-1.915.75-2.257 2.64-2.152 4.1.107 1.483.678 2.988 1.152 3.75a.969.969 0 0 0 1.646-1.023c-.312-.502-.781-1.704-.865-2.867-.085-1.188.232-1.884.927-2.157.789-.309 1.289-.19 1.857.04.098.041.21.092.332.147.557.253 1.354.615 2.27.615 1.356 0 2.47-1.109 2.693-2.335a2.55 2.55 0 0 0-.479-2.01c-.46-.615-1.187-1.062-2.132-1.336ZM22.858 5h4.685c.21 0 .362.23.276.43l-.228.57c-.476 1.21-1.6 2-2.847 2h-1.886a.706.706 0 0 0-.628.42l-1.39 3.23a.576.576 0 0 1-.514.35h-1.952c-.4 0-.676-.44-.514-.83l1.59-3.83C20.04 5.92 21.383 5 22.859 5Z"/><path fill="#00D26A" d="M13.545 7.749a54.9 54.9 0 0 0 .299-.515c.101-.187.64-1.156 1.562-1.156h1.742c.563 0 .875.57.875.906 0 .391-.218 1.016-.875 1.016h-.773a.253.253 0 0 0-.281.125c-.034.062-.151.39-.291.796h11.876c.25 0 .42.23.37.47l-.33 1.96c-.3 1.2-1.38 2.04-2.61 2.04H23.4l.06.07c.54.6.84 1.37.84 2.18l-.01 7.42v.36l-.04 1.04c-.01.17-.03.35-.05.52l-.06.52c-.013.123-.037.242-.06.36l-.03.16-.1.51c-.02.113-.049.226-.078.34l-.042.17c-.26.99-.62 1.96-1.07 2.88h-8.244l.921-3.209c.558-.517.585-1.186.613-1.898.008-.193.016-.388.034-.585A.207.207 0 0 0 15.88 24H7.14c-1.64 0-3.07-1.23-3.06-2.48 0-.33.266-.486.596-.486h5.552c.492 0 1.172-.316 1.523-.666l1.328-1.447H3.82c-.96 0-1.74-.78-1.74-1.74v-3.8a2.5 2.5 0 0 1 2.5-2.46c.6 0 1.336.14 1.766.5l.085.072c.28.236.6.506.962.506l3.037-.108c.5 0 .94-.3 1.13-.75l.44-.72c.027-.047.055-.092.084-.136.418-.747 1.079-1.88 1.462-2.536Z"/><path fill="#FCD53F" d="M14.616 29.92c.707-.44 1.938-2.343 2.634-4.059.563-1.387-.401-1.819-.953-1.861h-2.094l-.066.042a.2.2 0 0 1 .167.225c-.13.921-.26 1.788-.967 2.445-.93.877-2.664 1.443-3.891 1.843l-.257.084c-.095.047-.192.09-.288.134-.44.198-.853.384-.853.757 0 .35.226.358.588.37.107.003.226.007.355.02h5.625Z"/><path fill="#008463" d="M4 17c-.546 0-1-.41-1-.924v-2.152c0-.505.443-.924 1-.924.546 0 1 .41 1 .924v2.152c-.01.505-.454.924-1 .924Z"/><path fill="#1C1C1C" d="M14 14a1 1 0 1 1 2 0v2a1 1 0 1 1-2 0v-2Z"/></svg>
